X:1
T:Title
%%score { ( 1 4 ) | ( 2 3 ) }
L:1/8
M:3/4
K:A
V:1 treble nm="Grand Piano"
V:4 treble 
V:2 bass 
V:3 bass 
V:1
 z2 z2 z[Q:1/4=90] [CE] | [CE][CF] [CG][CA] [Ec]>[DB] | [DB]2 A2 z [A,EG] | %3
 [A,EG][A,DF] [A,DF][^A,EF] [Fd][FB] |[M:5/8] A2 G2 z |[M:1/8] E |[M:3/4] [CE][CF] [CG][CA] c>B | %7
 B2 A2 z [CG] | [DG][DF] [Dc][DB] [DA][DF] |[M:5/8] E- E3 z |[M:1/8] E |[M:3/4] FF FF FF | %12
 A2 G2 z G | AA AA [GB][Ac] |[M:5/8] d- d3 z |[M:1/8] [DGB] |[M:3/4] cc ee cA | %17
 [=GA]2 [Fd]2 z [Fd] | [Ec][Ec] [^Dc][DB] [Ec]>[=DB] |[M:5/8] [CA]- [CA]3 z |] %20
V:2
 z2 z2 z [A,,E,] | [A,,E,][A,,E,] [A,,E,][A,,E,] [E,G,]>[E,G,] | z2 C2 z C, | %3
 D,D, D,C, [B,,B,][D,B,] |[M:5/8] [E,B,E]- [E,B,E]3 z |[M:1/8] [E,G,D] | %6
[M:3/4] [A,,A,][A,,E,] [A,,E,][A,,E,] [E,G,E]>[^E,G,D] | [F,C]4 z [A,,A,] | %8
 [B,,A,][B,,A,] [B,,A,][B,,A,] [B,,F,][B,,A,] |[M:5/8] [E,G,]- [E,G,]3 z |[M:1/8] [E,G,B,] | %11
[M:3/4] [E,A,C][E,A,C] [E,A,C][E,A,C] [E,A,C][E,A,C] | [E,B,D]4 z [E,B,D] | %13
 [E,CE][E,CE] [E,CE][E,CE] [E,D][E,A,] |[M:5/8] z2[K:treble] G2 z |[M:1/8] E, | %16
[M:3/4] [A,CA][A,CA] [A,C=G][A,CG] [A,EG][A,CG] | D2 A,2 z [B,,A,] | %18
 [E,A,][E,A,] [B,,A,][B,,A,] [E,G,]>[E,G,] |[M:5/8] [A,,E,]- [A,,E,]3 z |] %20
V:3
 x6 | x6 | [A,,A,]4 z2 | x6 |[M:5/8] x5 |[M:1/8] x |[M:3/4] x6 | x6 | x6 |[M:5/8] x5 |[M:1/8] x | %11
[M:3/4] x6 | x6 | x6 |[M:5/8] [E,B,]- [E,B,]3[K:treble] z |[M:1/8] x |[M:3/4] x6 | D,4 z2 | x6 | %19
[M:5/8] x5 |] %20
V:4
 x6 | x6 | x6 | x6 |[M:5/8] x5 |[M:1/8] x |[M:3/4] x6 | x6 | x6 |[M:5/8] x5 |[M:1/8] x | %11
[M:3/4] x6 | x6 | x6 |[M:5/8] A2 z z2 |[M:1/8] x |[M:3/4] x6 | x6 | x6 |[M:5/8] x5 |] %20

